;Generated with Cura_SteamEngine 15.01
; Default start code
G28 ; Home extruder
G1 Z15 F100
M107 ; Turn off fan
G90 ; Absolute positioning
M82 ; Extruder in absolute mode
M190 S59
; Activate all used extruder
M104 T0 S218
G92 E0 ; Reset extruder position
; Wait for all used extruders to reach temperature
M109 T0 S218
;Layer count: 11
;LAYER:0
M107
G0 F9000 X88.504 Y21.227 Z0.300
;TYPE:SKIRT
G1 F1800 X88.955 Y19.535 E0.08736
G1 X89.588 Y18.438 E0.15055
G1 X89.842 Y18.006 E0.17555
G1 X91.072 Y16.778 E0.26226
G1 X92.153 Y16.153 E0.32456
G1 X92.575 Y15.905 E0.34898
G1 X93.998 Y15.525 E0.42246
G1 X118.674 Y12.265 E1.66425
G1 X120.214 Y12.265 E1.74108
G1 X121.434 Y12.592 E1.80409
G1 X121.913 Y12.725 E1.82890
G1 X123.421 Y13.593 E1.91570
G1 X124.305 Y14.478 E1.97811
G1 X124.657 Y14.831 E2.00298
G1 X125.536 Y16.350 E2.09054
G1 X125.850 Y17.534 E2.15165
G1 X125.987 Y18.028 E2.17723
G1 X125.987 Y19.790 E2.26513
G1 X125.536 Y21.480 E2.35240
G1 X124.903 Y22.577 E2.41558
G1 X124.650 Y23.007 E2.44048
G1 X123.421 Y24.238 E2.52726
G1 X122.334 Y24.864 E2.58984
G1 X121.916 Y25.110 E2.61404
G1 X120.694 Y25.437 E2.67715
G1 X120.694 Y25.436 E2.67720
G1 X120.226 Y25.566 E2.70143
G1 X118.599 Y25.566 E2.78260
G1 X118.696 Y26.304 E2.81974
G1 X119.463 Y26.203 E2.85833
G1 X120.490 Y26.067 E2.91002
G1 X122.028 Y26.067 E2.98675
G1 X123.722 Y26.518 E3.07421
G1 X125.239 Y27.397 E3.16168
G1 X126.476 Y28.634 E3.24895
G1 X127.352 Y30.151 E3.33635
G1 X127.676 Y31.360 E3.39880
G1 X127.675 Y31.360 E3.39885
G1 X127.805 Y31.828 E3.42308
G1 X127.805 Y33.594 E3.51118
G1 X127.352 Y35.282 E3.59838
G1 X126.722 Y36.377 E3.66141
G1 X126.467 Y36.809 E3.68643
G1 X125.238 Y38.038 E3.77315
G1 X123.721 Y38.915 E3.86057
G1 X122.510 Y39.238 E3.92309
G1 X122.043 Y39.367 E3.94727
G1 X120.411 Y39.367 E4.02869
G1 X120.508 Y40.105 E4.06582
G1 X121.277 Y40.004 E4.10452
G1 X121.277 Y40.005 E4.10457
G1 X122.306 Y39.868 E4.15636
G1 X123.846 Y39.868 E4.23319
G1 X125.538 Y40.321 E4.32058
G1 X126.633 Y40.953 E4.38365
G1 X127.062 Y41.205 E4.40847
G1 X128.296 Y42.435 E4.49540
G1 X128.909 Y43.505 E4.55692
G1 X129.164 Y43.938 E4.58199
G1 X129.492 Y45.158 E4.64502
G1 X129.491 Y45.158 E4.64507
G1 X129.622 Y45.630 E4.66951
G1 X129.622 Y47.393 E4.75746
G1 X129.295 Y48.614 E4.82053
G1 X129.162 Y49.094 E4.84538
G1 X128.294 Y50.602 E4.93218
G1 X127.407 Y51.488 E4.99473
G1 X127.054 Y51.841 E5.01964
G1 X125.968 Y52.466 E5.08215
G1 X125.551 Y52.712 E5.10630
G1 X123.846 Y53.168 E5.19436
G1 X122.223 Y53.168 E5.27533
G1 X122.320 Y53.907 E5.31251
G1 X123.094 Y53.805 E5.35146
G1 X123.094 Y53.806 E5.35151
G1 X124.124 Y53.669 E5.40335
G1 X125.665 Y53.669 E5.48023
G1 X126.885 Y53.996 E5.54325
G1 X127.365 Y54.129 E5.56810
G1 X128.870 Y54.996 E5.65475
G1 X130.109 Y56.236 E5.74220
G1 X130.735 Y57.318 E5.80457
G1 X130.984 Y57.741 E5.82906
G1 X131.438 Y59.446 E5.91708
G1 X131.438 Y61.192 E6.00419
G1 X131.114 Y62.412 E6.06717
G1 X130.980 Y62.897 E6.09227
G1 X130.354 Y63.981 E6.15472
G1 X130.100 Y64.412 E6.17968
G1 X128.871 Y65.641 E6.26639
G1 X127.354 Y66.517 E6.35379
G1 X126.145 Y66.841 E6.41623
G1 X126.145 Y66.840 E6.41628
G1 X125.677 Y66.970 E6.44052
G1 X124.034 Y66.970 E6.52249
G1 X125.930 Y81.414 E7.24928
G1 X128.166 Y82.340 E7.37002
G1 X129.560 Y83.405 E7.45754
G1 X130.625 Y84.799 E7.54507
G1 X131.065 Y85.862 E7.60246
G1 X131.066 Y85.862 E7.60251
G1 X131.294 Y86.405 E7.63189
G1 X131.495 Y87.942 E7.70923
G1 X131.495 Y132.056 E9.91008
G1 X131.370 Y133.015 E9.95833
G1 X131.293 Y133.591 E9.98733
G1 X130.843 Y134.677 E10.04597
G1 X130.620 Y135.207 E10.07466
G1 X129.559 Y136.594 E10.16178
G1 X128.622 Y137.310 E10.22062
G1 X128.170 Y137.658 E10.24908
G1 X125.930 Y138.585 E10.37002
G1 X124.034 Y153.029 E11.09682
G1 X125.663 Y153.029 E11.17809
G1 X126.883 Y153.355 E11.24109
G1 X127.366 Y153.488 E11.26608
G1 X128.871 Y154.358 E11.35281
G1 X130.110 Y155.596 E11.44019
G1 X130.722 Y156.658 E11.50135
G1 X130.983 Y157.102 E11.52704
G1 X131.438 Y158.805 E11.61498
G1 X131.438 Y160.553 E11.70219
G1 X130.987 Y162.247 E11.78965
G1 X130.108 Y163.764 E11.87712
G1 X128.869 Y165.003 E11.96454
G1 X127.784 Y165.628 E12.02701
G1 X127.784 Y165.627 E12.02706
G1 X127.369 Y165.872 E12.05110
G1 X126.149 Y166.200 E12.11413
G1 X126.149 Y166.199 E12.11418
G1 X125.677 Y166.330 E12.13862
G1 X124.126 Y166.330 E12.21600
G1 X123.095 Y166.195 E12.26787
G1 X122.320 Y166.093 E12.30687
G1 X122.223 Y166.831 E12.34401
G1 X123.845 Y166.831 E12.42493
G1 X125.066 Y167.157 E12.48798
G1 X125.549 Y167.290 E12.51297
G1 X127.053 Y168.158 E12.59961
G1 X127.939 Y169.042 E12.66205
G1 X128.296 Y169.400 E12.68727
G1 X128.921 Y170.487 E12.74983
G1 X129.164 Y170.901 E12.77378
G1 X129.492 Y172.122 E12.83685
G1 X129.491 Y172.122 E12.83690
G1 X129.622 Y172.593 E12.86129
G1 X129.622 Y174.357 E12.94930
G1 X129.295 Y175.577 E13.01231
G1 X129.162 Y176.055 E13.03707
G1 X128.295 Y177.565 E13.12394
G1 X127.053 Y178.803 E13.21143
G1 X125.971 Y179.427 E13.27374
G1 X125.552 Y179.674 E13.29801
G1 X123.848 Y180.132 E13.38604
G1 X122.308 Y180.132 E13.46287
G1 X121.277 Y179.997 E13.51474
G1 X120.508 Y179.896 E13.55344
G1 X120.412 Y180.632 E13.59047
G1 X122.030 Y180.632 E13.67119
G1 X123.721 Y181.085 E13.75853
G1 X124.815 Y181.716 E13.82154
G1 X125.247 Y181.970 E13.84654
G1 X126.477 Y183.200 E13.93332
G1 X127.352 Y184.716 E14.02065
G1 X127.805 Y186.405 E14.10789
G1 X127.805 Y188.158 E14.19535
G1 X127.352 Y189.848 E14.28264
G1 X126.721 Y190.942 E14.34565
G1 X126.467 Y191.374 E14.37065
G1 X125.238 Y192.603 E14.45736
G1 X124.156 Y193.229 E14.51973
G1 X123.733 Y193.478 E14.54422
G1 X122.028 Y193.932 E14.63224
G1 X120.491 Y193.932 E14.70892
G1 X118.696 Y193.696 E14.79925
G1 X118.599 Y194.433 E14.83633
G1 X120.212 Y194.433 E14.91681
G1 X121.432 Y194.759 E14.97981
G1 X121.913 Y194.892 E15.00471
G1 X122.998 Y195.516 E15.06715
G1 X123.431 Y195.771 E15.09222
G1 X124.659 Y197.001 E15.17893
G1 X125.271 Y198.062 E15.24004
G1 X125.533 Y198.507 E15.26581
G1 X125.859 Y199.731 E15.32900
G1 X125.858 Y199.731 E15.32905
G1 X125.987 Y200.195 E15.35308
G1 X125.987 Y201.954 E15.44083
G1 X125.663 Y203.176 E15.50391
G1 X125.528 Y203.663 E15.52912
G1 X124.902 Y204.746 E15.59153
G1 X124.650 Y205.175 E15.61635
G1 X123.419 Y206.408 E15.70327
G1 X122.331 Y207.033 E15.76587
G1 X121.918 Y207.276 E15.78978
G1 X120.215 Y207.734 E15.87776
G1 X118.675 Y207.734 E15.95459
G1 X94.075 Y204.495 E17.19248
G1 X92.588 Y204.098 E17.26927
G1 X91.492 Y203.464 E17.33244
G1 X91.063 Y203.212 E17.35726
G1 X90.187 Y202.338 E17.41900
G1 X89.833 Y201.984 E17.44397
G1 X88.955 Y200.464 E17.53155
G1 X88.632 Y199.250 E17.59422
G1 X88.504 Y198.787 E17.61819
G1 X88.504 Y197.027 E17.70599
G1 X88.828 Y195.807 E17.76897
G1 X88.962 Y195.322 E17.79407
G1 X89.834 Y193.813 E17.88102
G1 X90.721 Y192.928 E17.94354
G1 X91.071 Y192.579 E17.96819
G1 X92.153 Y191.953 E18.03056
G1 X92.574 Y191.706 E18.05491
G1 X94.278 Y191.249 E18.14293
G1 X96.029 Y191.249 E18.23029
G1 X97.249 Y191.575 E18.29329
G1 X97.734 Y191.709 E18.31839
G1 X97.964 Y191.842 E18.33165
G1 X98.076 Y190.982 E18.37491
G1 X95.891 Y190.694 E18.48487
G1 X94.875 Y190.422 E18.53734
G1 X94.395 Y190.289 E18.56219
G1 X93.310 Y189.665 E18.62463
G1 X92.877 Y189.410 E18.64971
G1 X92.001 Y188.533 E18.71155
G1 X91.649 Y188.180 E18.73642
G1 X91.024 Y187.096 E18.79884
G1 X90.777 Y186.677 E18.82311
G1 X90.450 Y185.455 E18.88622
G1 X90.451 Y185.455 E18.88627
G1 X90.321 Y184.987 E18.91050
G1 X90.321 Y183.223 E18.99851
G1 X90.774 Y181.532 E19.08585
G1 X91.405 Y180.438 E19.14886
G1 X91.658 Y180.007 E19.17379
G1 X92.886 Y178.777 E19.26050
G1 X93.971 Y178.151 E19.32300
G1 X94.394 Y177.902 E19.34749
G1 X95.620 Y177.576 E19.41078
G1 X96.083 Y177.448 E19.43474
G1 X97.843 Y177.448 E19.52255
G1 X99.063 Y177.772 E19.58552
G1 X99.548 Y177.906 E19.61063
G1 X99.776 Y178.038 E19.62377
G1 X99.889 Y177.180 E19.66695
G1 X97.707 Y176.892 E19.77675
G1 X96.223 Y176.494 E19.85341
G1 X95.127 Y175.864 E19.91647
G1 X94.695 Y175.609 E19.94150
G1 X93.465 Y174.380 E20.02825
G1 X92.840 Y173.294 E20.09076
G1 X92.595 Y172.878 E20.11485
G1 X92.137 Y171.174 E20.20288
G1 X92.137 Y169.420 E20.29039
G1 X92.591 Y167.731 E20.37764
G1 X93.221 Y166.636 E20.44067
G1 X93.475 Y166.205 E20.46563
G1 X94.349 Y165.329 E20.52736
G1 X94.706 Y164.973 E20.55252
G1 X96.221 Y164.100 E20.63975
G1 X97.910 Y163.646 E20.72701
G1 X99.663 Y163.646 E20.81446
G1 X100.884 Y163.973 E20.87753
G1 X101.365 Y164.106 E20.90242
G1 X101.588 Y164.235 E20.91528
G1 X101.700 Y163.378 E20.95840
G1 X99.524 Y163.091 E21.06790
G1 X98.038 Y162.693 E21.14465
G1 X96.520 Y161.817 E21.23209
G1 X95.283 Y160.578 E21.31943
G1 X94.658 Y159.495 E21.38182
G1 X94.409 Y159.073 E21.40626
G1 X93.955 Y157.368 E21.49429
G1 X93.955 Y155.623 E21.58135
G1 X94.279 Y154.403 E21.64432
G1 X94.413 Y153.918 E21.66943
G1 X95.284 Y152.410 E21.75631
G1 X96.169 Y151.526 E21.81872
G1 X96.520 Y151.175 E21.84348
G1 X98.037 Y150.298 E21.93090
G1 X99.729 Y149.845 E22.01829
G1 X101.479 Y149.845 E22.10560
G1 X103.171 Y150.298 E22.19298
G1 X103.401 Y150.431 E22.20624
G1 X104.613 Y141.202 E22.67063
G1 X104.350 Y140.988 E22.68754
G1 X103.917 Y140.502 E22.72002
G1 X103.427 Y139.768 E22.76405
G1 X103.059 Y138.898 E22.81118
G1 X102.852 Y138.123 E22.85120
G1 X102.737 Y137.316 E22.89186
G1 X102.705 Y136.571 E22.92907
G1 X102.705 Y83.428 E25.58038
G1 X102.737 Y82.674 E25.61803
G1 X102.866 Y81.808 E25.66171
G1 X103.078 Y81.058 E25.70060
G1 X103.266 Y80.575 E25.72646
G1 X103.678 Y79.818 E25.76945
G1 X104.294 Y79.055 E25.81838
G1 X104.613 Y78.798 E25.83882
G1 X103.401 Y69.569 E26.30321
G1 X103.172 Y69.701 E26.31639
G1 X101.479 Y70.154 E26.40383
G1 X99.730 Y70.154 E26.49109
G1 X98.510 Y69.828 E26.55409
G1 X98.026 Y69.694 E26.57914
G1 X96.522 Y68.825 E26.66580
G1 X95.638 Y67.943 E26.72810
G1 X95.283 Y67.588 E26.75315
G1 X94.406 Y66.068 E26.84070
G1 X94.083 Y64.856 E26.90328
G1 X94.084 Y64.856 E26.90333
G1 X93.955 Y64.392 E26.92735
G1 X93.955 Y62.632 E27.01516
G1 X94.279 Y61.411 E27.07818
G1 X94.413 Y60.926 E27.10329
G1 X95.039 Y59.842 E27.16574
G1 X95.292 Y59.412 E27.19063
G1 X96.166 Y58.536 E27.25237
G1 X96.522 Y58.180 E27.27748
G1 X97.608 Y57.555 E27.34000
G1 X98.025 Y57.310 E27.36413
G1 X99.525 Y56.907 E27.44161
G1 X100.618 Y56.764 E27.49661
G1 X101.701 Y56.621 E27.55111
G1 X101.589 Y55.764 E27.59423
G1 X101.356 Y55.899 E27.60766
G1 X100.147 Y56.223 E27.67011
G1 X100.147 Y56.222 E27.67016
G1 X99.676 Y56.353 E27.69455
G1 X97.910 Y56.353 E27.78266
G1 X96.220 Y55.898 E27.86997
G1 X94.705 Y55.024 E27.95723
G1 X93.466 Y53.785 E28.04465
G1 X92.591 Y52.269 E28.13198
G1 X92.267 Y51.061 E28.19437
G1 X92.268 Y51.061 E28.19442
G1 X92.137 Y50.590 E28.21881
G1 X92.137 Y48.825 E28.30687
G1 X92.592 Y47.134 E28.39424
G1 X93.466 Y45.619 E28.48150
G1 X94.705 Y44.380 E28.56891
G1 X96.221 Y43.505 E28.65624
G1 X97.709 Y43.106 E28.73310
G1 X98.805 Y42.963 E28.78824
G1 X99.889 Y42.820 E28.84279
G1 X99.777 Y41.962 E28.88596
G1 X99.548 Y42.096 E28.89920
G1 X97.845 Y42.551 E28.98714
G1 X96.099 Y42.551 E29.07425
G1 X94.878 Y42.227 E29.13727
G1 X94.392 Y42.092 E29.16244
G1 X92.885 Y41.221 E29.24928
G1 X91.648 Y39.982 E29.33663
G1 X91.024 Y38.899 E29.39898
G1 X90.777 Y38.481 E29.42321
G1 X90.321 Y36.776 E29.51126
G1 X90.321 Y35.025 E29.59862
G1 X90.774 Y33.335 E29.68591
G1 X91.405 Y32.241 E29.74892
G1 X91.658 Y31.810 E29.77385
G1 X92.887 Y30.579 E29.86063
G1 X93.974 Y29.953 E29.92321
G1 X94.390 Y29.708 E29.94730
G1 X95.892 Y29.304 E30.02490
G1 X96.987 Y29.162 E30.07999
G1 X96.987 Y29.161 E30.08004
G1 X98.077 Y29.017 E30.13489
G1 X97.964 Y28.158 E30.17811
G1 X97.733 Y28.294 E30.19149
G1 X96.511 Y28.621 E30.25460
G1 X96.511 Y28.620 E30.25465
G1 X96.043 Y28.750 E30.27888
G1 X94.279 Y28.750 E30.36689
G1 X93.059 Y28.424 E30.42989
G1 X92.574 Y28.290 E30.45499
G1 X91.072 Y27.421 E30.54156
G1 X90.188 Y26.540 E30.60383
G1 X89.832 Y26.183 E30.62898
G1 X89.206 Y25.097 E30.69152
G1 X88.958 Y24.676 E30.71590
G1 X88.632 Y23.452 E30.77909
G1 X88.633 Y23.452 E30.77914
G1 X88.504 Y22.988 E30.80317
G1 X88.504 Y21.227 E30.89103
G1 F2400 E26.89103
G0 F9000 X92.304 Y21.726
;TYPE:WALL-INNER
G1 F2400 E30.89103
G1 F1800 X92.498 Y20.999 E30.92856
G1 X92.872 Y20.352 E30.96585
G1 X93.407 Y19.817 E31.00360
G1 X94.053 Y19.444 E31.04081
G1 X94.741 Y19.260 E31.07634
G1 X118.925 Y16.065 E32.29337
G1 X119.714 Y16.065 E32.33273
G1 X120.433 Y16.258 E32.36987
G1 X121.086 Y16.633 E32.40744
G1 X121.619 Y17.167 E32.44508
G1 X121.993 Y17.814 E32.48237
G1 X122.187 Y18.543 E32.52000
G1 X122.187 Y19.290 E32.55727
G1 X121.993 Y20.016 E32.59476
G1 X121.619 Y20.664 E32.63209
G1 X121.086 Y21.198 E32.66973
G1 X120.435 Y21.572 E32.70719
G1 X119.711 Y21.766 E32.74458
G1 X118.964 Y21.766 E32.78185
G1 X118.237 Y21.571 E32.81940
G1 X117.588 Y21.197 E32.85677
G1 X117.057 Y20.665 E32.89427
G1 X116.682 Y20.013 E32.93180
G1 X116.331 Y18.707 E32.99927
G1 X113.907 Y19.025 E33.12124
G1 X115.423 Y30.566 E33.70197
G1 X120.741 Y29.867 E33.96956
G1 X121.529 Y29.867 E34.00888
G1 X122.257 Y30.061 E34.04647
G1 X122.906 Y30.437 E34.08389
G1 X123.434 Y30.965 E34.12114
G1 X123.811 Y31.617 E34.15871
G1 X124.005 Y32.343 E34.19620
G1 X124.005 Y33.090 E34.23347
G1 X123.810 Y33.818 E34.27107
G1 X123.439 Y34.463 E34.30820
G1 X122.907 Y34.996 E34.34577
G1 X122.255 Y35.372 E34.38332
G1 X121.528 Y35.567 E34.42087
G1 X120.781 Y35.567 E34.45814
G1 X120.054 Y35.372 E34.49569
G1 X119.402 Y34.996 E34.53324
G1 X118.874 Y34.468 E34.57049
G1 X118.499 Y33.816 E34.60802
G1 X118.304 Y33.090 E34.64552
G1 X118.143 Y32.509 E34.67560
G1 X115.719 Y32.827 E34.79757
G1 X117.235 Y44.368 E35.37830
G1 X122.557 Y43.668 E35.64610
G1 X123.345 Y43.668 E35.68541
G1 X124.071 Y43.863 E35.72292
G1 X124.720 Y44.237 E35.76029
G1 X125.254 Y44.769 E35.79790
G1 X125.627 Y45.420 E35.83533
G1 X125.822 Y46.146 E35.87283
G1 X125.822 Y46.891 E35.91000
G1 X125.627 Y47.619 E35.94760
G1 X125.254 Y48.267 E35.98490
G1 X124.721 Y48.799 E36.02247
G1 X124.069 Y49.174 E36.06000
G1 X123.345 Y49.368 E36.09739
G1 X122.597 Y49.368 E36.13471
G1 X121.873 Y49.175 E36.17209
G1 X121.221 Y48.799 E36.20964
G1 X120.689 Y48.266 E36.24721
G1 X120.316 Y47.622 E36.28434
G1 X120.121 Y46.891 E36.32209
G1 X119.960 Y46.309 E36.35221
G1 X117.531 Y46.630 E36.47445
G1 X119.047 Y58.170 E37.05513
G1 X124.375 Y57.469 E37.32324
G1 X125.165 Y57.469 E37.36265
G1 X125.884 Y57.662 E37.39979
G1 X126.540 Y58.040 E37.43756
G1 X127.070 Y58.570 E37.47496
G1 X127.444 Y59.218 E37.51228
G1 X127.638 Y59.945 E37.54982
G1 X127.638 Y60.695 E37.58724
G1 X127.447 Y61.415 E37.62440
G1 X127.069 Y62.070 E37.66213
G1 X126.540 Y62.599 E37.69946
G1 X125.888 Y62.976 E37.73703
G1 X125.162 Y63.170 E37.77452
G1 X124.415 Y63.170 E37.81179
G1 X123.691 Y62.977 E37.84917
G1 X123.039 Y62.601 E37.88672
G1 X122.508 Y62.069 E37.92422
G1 X122.132 Y61.420 E37.96164
G1 X121.781 Y60.110 E38.02931
G1 X119.343 Y60.431 E38.15199
G1 X122.448 Y84.085 E39.34221
G1 X126.252 Y85.660 E39.54762
G1 X126.849 Y86.116 E39.58510
G1 X127.305 Y86.713 E39.62258
G1 X127.562 Y87.334 E39.65611
G1 X127.593 Y87.406 E39.66002
G1 X127.695 Y88.190 E39.69946
G1 X127.695 Y131.810 E41.87567
G1 X127.603 Y132.515 E41.91114
G1 X127.592 Y132.595 E41.91517
G1 X127.337 Y133.211 E41.94843
G1 X127.306 Y133.286 E41.95248
G1 X126.849 Y133.883 E41.98999
G1 X126.315 Y134.291 E42.02352
G1 X126.252 Y134.339 E42.02747
G1 X122.448 Y135.914 E42.23288
G1 X119.343 Y159.568 E43.42310
G1 X121.029 Y159.789 E43.50794
G1 X121.781 Y159.890 E43.54579
G1 X122.132 Y158.580 E43.61345
G1 X122.507 Y157.931 E43.65085
G1 X123.040 Y157.397 E43.68849
G1 X123.691 Y157.023 E43.72595
G1 X124.415 Y156.829 E43.76334
G1 X125.163 Y156.829 E43.80066
