;Generated with Cura_SteamEngine 15.01
; Default start code
G28 ; Home extruder
G1 Z15 F100
M107 ; Turn off fan
G90 ; Absolute positioning
M82 ; Extruder in absolute mode
M190 S59
; Activate all used extruder
M104 T0 S218
G92 E0 ; Reset extruder position
; Wait for all used extruders to reach temperature
M109 T0 S218
;Layer count: 11
;LAYER:0
M107
G0 F9000 X25.342 Y18.006 Z0.300
G0 X25.088 Y18.438
;TYPE:SKIRT
G1 F1800 X25.342 Y18.006 E0.02500
G1 X26.572 Y16.778 E0.11171
G1 X27.653 Y16.153 E0.17401
G1 X28.075 Y15.905 E0.19843
G1 X29.498 Y15.525 E0.27191
G1 X54.174 Y12.265 E1.51370
G1 X55.714 Y12.265 E1.59053
G1 X56.934 Y12.592 E1.65355
G1 X57.413 Y12.725 E1.67835
G1 X58.921 Y13.593 E1.76515
G1 X59.805 Y14.478 E1.82756
G1 X60.157 Y14.831 E1.85243
G1 X61.036 Y16.350 E1.93999
G1 X61.350 Y17.534 E2.00110
G1 X61.487 Y18.028 E2.02668
G1 X61.487 Y19.790 E2.11458
G1 X61.036 Y21.480 E2.20185
G1 X60.403 Y22.577 E2.26504
G1 X60.150 Y23.007 E2.28993
G1 X58.921 Y24.238 E2.37671
G1 X57.834 Y24.864 E2.43929
G1 X57.416 Y25.110 E2.46349
G1 X56.194 Y25.437 E2.52660
G1 X56.194 Y25.436 E2.52665
G1 X55.726 Y25.566 E2.55088
G1 X54.099 Y25.566 E2.63205
G1 X54.196 Y26.304 E2.66919
G1 X54.963 Y26.203 E2.70778
G1 X55.990 Y26.067 E2.75947
G1 X57.528 Y26.067 E2.83620
G1 X59.222 Y26.518 E2.92366
G1 X60.739 Y27.397 E3.01113
G1 X61.976 Y28.634 E3.09841
G1 X62.852 Y30.151 E3.18580
G1 X63.176 Y31.360 E3.24825
G1 X63.175 Y31.360 E3.24830
G1 X63.305 Y31.828 E3.27253
G1 X63.305 Y33.594 E3.36064
G1 X62.852 Y35.282 E3.44783
G1 X62.222 Y36.377 E3.51086
G1 X61.967 Y36.809 E3.53588
G1 X60.738 Y38.038 E3.62260
G1 X59.221 Y38.915 E3.71002
G1 X58.010 Y39.238 E3.77255
G1 X57.543 Y39.367 E3.79672
G1 X55.911 Y39.367 E3.87814
G1 X56.008 Y40.105 E3.91527
G1 X56.777 Y40.004 E3.95397
G1 X56.777 Y40.005 E3.95402
G1 X57.806 Y39.868 E4.00581
G1 X59.346 Y39.868 E4.08264
G1 X61.038 Y40.321 E4.17003
G1 X62.133 Y40.953 E4.23310
G1 X62.562 Y41.205 E4.25793
G1 X63.796 Y42.435 E4.34485
G1 X64.409 Y43.505 E4.40637
G1 X64.664 Y43.938 E4.43144
G1 X64.992 Y45.158 E4.49447
G1 X64.991 Y45.158 E4.49452
G1 X65.122 Y45.630 E4.51896
G1 X65.122 Y47.393 E4.60691
G1 X64.795 Y48.614 E4.66998
G1 X64.662 Y49.094 E4.69483
G1 X63.794 Y50.602 E4.78163
G1 X62.907 Y51.488 E4.84418
G1 X62.554 Y51.841 E4.86909
G1 X61.468 Y52.466 E4.93160
G1 X61.051 Y52.712 E4.95575
G1 X59.346 Y53.168 E5.04381
G1 X57.723 Y53.168 E5.12478
G1 X57.820 Y53.907 E5.16196
G1 X58.594 Y53.805 E5.20091
G1 X58.594 Y53.806 E5.20096
G1 X59.624 Y53.669 E5.25280
G1 X61.165 Y53.669 E5.32968
G1 X62.385 Y53.996 E5.39270
G1 X62.864 Y54.129 E5.41750
G1 X64.372 Y54.997 E5.50431
G1 X65.256 Y55.882 E5.56671
G1 X65.609 Y56.236 E5.59165
G1 X66.235 Y57.318 E5.65402
G1 X66.484 Y57.741 E5.67851
G1 X66.938 Y59.446 E5.76653
G1 X66.938 Y61.192 E5.85364
G1 X66.614 Y62.412 E5.91662
G1 X66.480 Y62.897 E5.94172
G1 X65.854 Y63.981 E6.00417
G1 X65.601 Y64.411 E6.02906
G1 X64.373 Y65.641 E6.11578
G1 X62.854 Y66.518 E6.20328
G1 X61.645 Y66.841 E6.26572
G1 X61.645 Y66.840 E6.26577
G1 X61.177 Y66.970 E6.29000
G1 X59.534 Y66.970 E6.37197
G1 X61.430 Y81.414 E7.09876
G1 X63.666 Y82.340 E7.21951
G1 X65.060 Y83.405 E7.30703
G1 X66.125 Y84.799 E7.39455
G1 X66.565 Y85.862 E7.45194
G1 X66.566 Y85.862 E7.45199
G1 X66.794 Y86.405 E7.48138
G1 X66.995 Y87.942 E7.55871
G1 X66.995 Y132.056 E9.75957
G1 X66.870 Y133.015 E9.80782
G1 X66.793 Y133.591 E9.83681
G1 X66.343 Y134.677 E9.89546
G1 X66.120 Y135.207 E9.92414
G1 X65.059 Y136.594 E10.01127
G1 X64.122 Y137.310 E10.07010
G1 X63.670 Y137.658 E10.09856
G1 X61.430 Y138.585 E10.21950
G1 X59.534 Y153.029 E10.94630
G1 X61.163 Y153.029 E11.02757
G1 X62.383 Y153.355 E11.09057
G1 X62.866 Y153.488 E11.11557
G1 X64.373 Y154.358 E11.20238
G1 X65.256 Y155.242 E11.26472
G1 X65.610 Y155.596 E11.28969
G1 X66.222 Y156.658 E11.35084
G1 X66.483 Y157.102 E11.37654
G1 X66.938 Y158.805 E11.46448
G1 X66.938 Y160.553 E11.55169
G1 X66.487 Y162.247 E11.63915
G1 X65.609 Y163.763 E11.72655
G1 X64.727 Y164.647 E11.78885
G1 X64.369 Y165.004 E11.81407
G1 X63.282 Y165.629 E11.87663
G1 X62.869 Y165.872 E11.90054
G1 X61.649 Y166.200 E11.96356
G1 X61.649 Y166.199 E11.96361
G1 X61.177 Y166.330 E11.98805
G1 X59.626 Y166.330 E12.06543
G1 X58.595 Y166.195 E12.11731
G1 X57.820 Y166.093 E12.15631
G1 X57.723 Y166.831 E12.19344
G1 X59.345 Y166.831 E12.27436
G1 X60.566 Y167.157 E12.33741
G1 X61.049 Y167.290 E12.36241
G1 X62.553 Y168.158 E12.44904
G1 X63.439 Y169.042 E12.51148
G1 X63.796 Y169.400 E12.53671
G1 X64.421 Y170.487 E12.59926
G1 X64.664 Y170.901 E12.62321
G1 X64.992 Y172.122 E12.68629
G1 X64.991 Y172.122 E12.68634
G1 X65.122 Y172.593 E12.71073
G1 X65.122 Y174.357 E12.79873
G1 X64.795 Y175.577 E12.86175
G1 X64.662 Y176.055 E12.88650
G1 X63.795 Y177.565 E12.97337
G1 X62.553 Y178.803 E13.06086
G1 X61.471 Y179.427 E13.12318
G1 X61.052 Y179.674 E13.14744
G1 X59.348 Y180.132 E13.23547
G1 X57.808 Y180.132 E13.31230
G1 X56.777 Y179.997 E13.36418
G1 X56.008 Y179.896 E13.40287
G1 X55.912 Y180.632 E13.43990
G1 X57.530 Y180.632 E13.52063
G1 X59.221 Y181.085 E13.60796
G1 X60.315 Y181.716 E13.67097
G1 X60.747 Y181.970 E13.69597
G1 X61.977 Y183.200 E13.78276
G1 X62.852 Y184.716 E13.87009
G1 X63.305 Y186.405 E13.95733
G1 X63.305 Y188.158 E14.04479
G1 X62.852 Y189.848 E14.13208
G1 X62.221 Y190.942 E14.19508
G1 X61.967 Y191.374 E14.22009
G1 X60.738 Y192.603 E14.30680
G1 X59.656 Y193.229 E14.36916
G1 X59.233 Y193.478 E14.39365
G1 X57.528 Y193.932 E14.48168
G1 X55.991 Y193.932 E14.55836
G1 X54.196 Y193.696 E14.64868
G1 X54.099 Y194.433 E14.68577
G1 X55.712 Y194.433 E14.76624
G1 X56.932 Y194.759 E14.82924
G1 X57.413 Y194.892 E14.85414
G1 X58.498 Y195.516 E14.91659
G1 X58.931 Y195.771 E14.94166
G1 X60.159 Y197.001 E15.02837
G1 X60.771 Y198.062 E15.08948
G1 X61.033 Y198.507 E15.11524
G1 X61.359 Y199.731 E15.17844
G1 X61.358 Y199.731 E15.17849
G1 X61.487 Y200.195 E15.20251
G1 X61.487 Y201.954 E15.29027
G1 X61.163 Y203.176 E15.35334
G1 X61.028 Y203.663 E15.37855
G1 X60.402 Y204.746 E15.44096
G1 X60.150 Y205.175 E15.46578
G1 X58.919 Y206.408 E15.55271
G1 X57.831 Y207.033 E15.61531
G1 X57.418 Y207.276 E15.63921
G1 X55.715 Y207.734 E15.72720
G1 X54.175 Y207.734 E15.80403
G1 X29.575 Y204.495 E17.04192
G1 X28.088 Y204.098 E17.11870
G1 X26.992 Y203.464 E17.18187
G1 X26.563 Y203.212 E17.20670
G1 X25.687 Y202.338 E17.26843
G1 X25.333 Y201.984 E17.29341
G1 X24.455 Y200.464 E17.38098
G1 X24.132 Y199.250 E17.44366
G1 X24.004 Y198.787 E17.46762
G1 X24.004 Y197.027 E17.55543
G1 X24.328 Y195.807 E17.61841
G1 X24.462 Y195.322 E17.64351
G1 X25.334 Y193.813 E17.73046
G1 X26.221 Y192.928 E17.79297
G1 X26.571 Y192.579 E17.81763
G1 X27.653 Y191.953 E17.88000
G1 X28.074 Y191.706 E17.90435
G1 X29.778 Y191.249 E17.99236
G1 X31.529 Y191.249 E18.07972
G1 X32.749 Y191.575 E18.14272
G1 X33.234 Y191.709 E18.16783
G1 X33.464 Y191.842 E18.18108
G1 X33.576 Y190.982 E18.22435
G1 X31.391 Y190.694 E18.33430
G1 X30.375 Y190.422 E18.38678
G1 X29.895 Y190.289 E18.41163
G1 X28.810 Y189.665 E18.47407
G1 X28.377 Y189.410 E18.49914
G1 X27.501 Y188.533 E18.56098
G1 X27.149 Y188.180 E18.58585
G1 X26.524 Y187.096 E18.64828
G1 X26.277 Y186.677 E18.67255
G1 X25.950 Y185.455 E18.73566
G1 X25.951 Y185.455 E18.73571
G1 X25.821 Y184.987 E18.75994
G1 X25.821 Y183.223 E18.84794
G1 X26.274 Y181.532 E18.93528
G1 X26.905 Y180.438 E18.99829
G1 X27.158 Y180.007 E19.02323
G1 X28.386 Y178.777 E19.10994
G1 X29.471 Y178.151 E19.17243
G1 X29.894 Y177.902 E19.19692
G1 X31.120 Y177.576 E19.26021
G1 X31.583 Y177.448 E19.28418
G1 X33.343 Y177.448 E19.37198
G1 X34.563 Y177.772 E19.43496
G1 X35.048 Y177.906 E19.46006
G1 X35.276 Y178.038 E19.47321
G1 X35.389 Y177.180 E19.51638
G1 X33.207 Y176.892 E19.62619
G1 X31.723 Y176.494 E19.70284
G1 X30.627 Y175.864 E19.76591
G1 X30.195 Y175.609 E19.79094
G1 X28.965 Y174.380 E19.87769
G1 X28.340 Y173.294 E19.94020
G1 X28.095 Y172.878 E19.96428
G1 X27.637 Y171.174 E20.05231
G1 X27.637 Y169.420 E20.13982
G1 X28.091 Y167.731 E20.22708
G1 X28.721 Y166.636 E20.29010
G1 X28.975 Y166.205 E20.31506
G1 X29.849 Y165.329 E20.37680
G1 X30.206 Y164.973 E20.40195
G1 X31.721 Y164.100 E20.48919
G1 X33.410 Y163.646 E20.57644
G1 X35.163 Y163.646 E20.66390
G1 X36.384 Y163.973 E20.72696
G1 X36.865 Y164.106 E20.75186
G1 X37.088 Y164.235 E20.76471
G1 X37.200 Y163.378 E20.80783
G1 X35.024 Y163.091 E20.91733
G1 X33.538 Y162.693 E20.99408
G1 X32.020 Y161.817 E21.08152
G1 X30.783 Y160.578 E21.16887
G1 X30.158 Y159.495 E21.23125
G1 X29.909 Y159.073 E21.25570
G1 X29.455 Y157.368 E21.34372
G1 X29.455 Y155.623 E21.43078
G1 X29.779 Y154.403 E21.49376
G1 X29.913 Y153.918 E21.51886
G1 X30.784 Y152.410 E21.60574
G1 X31.669 Y151.526 E21.66815
G1 X32.020 Y151.175 E21.69292
G1 X33.537 Y150.298 E21.78034
G1 X35.229 Y149.845 E21.86772
G1 X36.979 Y149.845 E21.95503
G1 X38.671 Y150.298 E22.04242
G1 X38.901 Y150.431 E22.05567
G1 X40.113 Y141.202 E22.52006
G1 X39.850 Y140.988 E22.53698
G1 X39.417 Y140.502 E22.56945
G1 X38.927 Y139.768 E22.61348
G1 X38.559 Y138.898 E22.66061
G1 X38.352 Y138.123 E22.70063
G1 X38.237 Y137.316 E22.74130
G1 X38.205 Y136.571 E22.77850
G1 X38.205 Y83.428 E25.42982
G1 X38.237 Y82.674 E25.46747
G1 X38.366 Y81.808 E25.51115
G1 X38.578 Y81.058 E25.55003
G1 X38.766 Y80.575 E25.57589
G1 X39.178 Y79.818 E25.61889
G1 X39.794 Y79.055 E25.66781
G1 X40.113 Y78.798 E25.68825
G1 X38.901 Y69.569 E26.15264
G1 X38.672 Y69.701 E26.16583
G1 X36.979 Y70.154 E26.25326
G1 X35.230 Y70.154 E26.34052
G1 X34.010 Y69.828 E26.40352
G1 X33.526 Y69.694 E26.42858
G1 X32.022 Y68.825 E26.51524
G1 X31.138 Y67.943 E26.57754
G1 X30.783 Y67.588 E26.60259
G1 X29.906 Y66.068 E26.69014
G1 X29.583 Y64.856 E26.75271
G1 X29.584 Y64.856 E26.75276
G1 X29.455 Y64.392 E26.77679
G1 X29.455 Y62.632 E26.86460
G1 X29.779 Y61.411 E26.92762
G1 X29.913 Y60.926 E26.95272
G1 X30.539 Y59.842 E27.01517
G1 X30.792 Y59.412 E27.04007
G1 X31.666 Y58.536 E27.10180
G1 X32.022 Y58.180 E27.12692
G1 X33.108 Y57.555 E27.18943
G1 X33.525 Y57.310 E27.21356
G1 X35.025 Y56.907 E27.29105
G1 X36.118 Y56.764 E27.34604
G1 X37.201 Y56.621 E27.40055
G1 X37.089 Y55.764 E27.44366
G1 X36.856 Y55.899 E27.45710
G1 X35.647 Y56.223 E27.51954
G1 X35.647 Y56.222 E27.51959
G1 X35.176 Y56.353 E27.54398
G1 X33.410 Y56.353 E27.63209
G1 X31.720 Y55.898 E27.71941
G1 X30.205 Y55.024 E27.80667
G1 X28.966 Y53.785 E27.89409
G1 X28.091 Y52.269 E27.98141
G1 X27.767 Y51.061 E28.04381
G1 X27.768 Y51.061 E28.04386
G1 X27.637 Y50.590 E28.06825
G1 X27.637 Y48.825 E28.15631
G1 X28.092 Y47.134 E28.24367
G1 X28.966 Y45.619 E28.33093
G1 X30.205 Y44.380 E28.41835
G1 X31.721 Y43.505 E28.50568
G1 X33.209 Y43.106 E28.58254
G1 X34.305 Y42.963 E28.63768
G1 X35.389 Y42.820 E28.69223
G1 X35.277 Y41.962 E28.73540
G1 X35.048 Y42.096 E28.74863
G1 X33.345 Y42.551 E28.83658
G1 X31.599 Y42.551 E28.92369
G1 X30.378 Y42.227 E28.98671
G1 X29.892 Y42.092 E29.01187
G1 X28.385 Y41.221 E29.09871
G1 X27.148 Y39.982 E29.18606
G1 X26.524 Y38.899 E29.24842
G1 X26.277 Y38.481 E29.27264
G1 X25.821 Y36.776 E29.36069
G1 X25.821 Y35.025 E29.44805
G1 X26.274 Y33.335 E29.53534
G1 X26.905 Y32.241 E29.59835
G1 X27.158 Y31.810 E29.62328
G1 X28.387 Y30.579 E29.71007
G1 X29.474 Y29.953 E29.77265
G1 X29.890 Y29.708 E29.79674
G1 X31.392 Y29.304 E29.87433
G1 X32.487 Y29.162 E29.92942
G1 X32.487 Y29.161 E29.92947
G1 X33.577 Y29.017 E29.98432
G1 X33.464 Y28.158 E30.02755
G1 X33.233 Y28.294 E30.04092
G1 X32.011 Y28.621 E30.10403
G1 X32.011 Y28.620 E30.10408
G1 X31.543 Y28.750 E30.12832
G1 X29.779 Y28.750 E30.21632
G1 X28.559 Y28.424 E30.27932
G1 X28.074 Y28.290 E30.30443
G1 X26.572 Y27.421 E30.39100
G1 X25.688 Y26.540 E30.45326
G1 X25.332 Y26.183 E30.47842
G1 X24.706 Y25.097 E30.54096
G1 X24.458 Y24.676 E30.56533
G1 X24.132 Y23.452 E30.62853
G1 X24.133 Y23.452 E30.62858
G1 X24.004 Y22.988 E30.65260
G1 X24.004 Y21.227 E30.74046
G1 X24.455 Y19.535 E30.82782
G1 X25.088 Y18.438 E30.89101
G0 F9000 X67.004 Y21.227
G1 F1800 X67.455 Y19.535 E30.97837
G1 X68.088 Y18.438 E31.04156
G1 X68.342 Y18.006 E31.06656
G1 X69.572 Y16.778 E31.15327
G1 X70.653 Y16.153 E31.21557
G1 X71.075 Y15.905 E31.23999
G1 X72.498 Y15.525 E31.31347
G1 X97.174 Y12.265 E32.55526
G1 X98.714 Y12.265 E32.63209
G1 X99.934 Y12.592 E32.69510
G1 X100.413 Y12.725 E32.71991
G1 X101.921 Y13.593 E32.80671
G1 X102.805 Y14.478 E32.86912
G1 X103.157 Y14.831 E32.89399
G1 X104.036 Y16.350 E32.98155
G1 X104.350 Y17.534 E33.04266
G1 X104.487 Y18.028 E33.06824
G1 X104.487 Y19.790 E33.15614
G1 X104.036 Y21.480 E33.24341
G1 X103.403 Y22.577 E33.30659
G1 X103.150 Y23.007 E33.33148
G1 X101.921 Y24.238 E33.41827
G1 X100.834 Y24.864 E33.48085
G1 X100.416 Y25.110 E33.50505
G1 X99.194 Y25.437 E33.56816
G1 X99.194 Y25.436 E33.56821
G1 X98.726 Y25.566 E33.59244
G1 X97.099 Y25.566 E33.67361
G1 X97.196 Y26.304 E33.71075
G1 X97.963 Y26.203 E33.74934
G1 X98.990 Y26.067 E33.80103
G1 X100.528 Y26.067 E33.87776
G1 X102.222 Y26.518 E33.96522
G1 X103.739 Y27.397 E34.05269
G1 X104.976 Y28.634 E34.13996
G1 X105.852 Y30.151 E34.22736
G1 X106.176 Y31.360 E34.28981
G1 X106.175 Y31.360 E34.28986
G1 X106.305 Y31.828 E34.31409
G1 X106.305 Y33.594 E34.40219
G1 X105.852 Y35.282 E34.48939
G1 X105.222 Y36.377 E34.55241
G1 X104.967 Y36.809 E34.57744
G1 X103.738 Y38.038 E34.66415
G1 X102.221 Y38.915 E34.75158
G1 X101.010 Y39.238 E34.81410
G1 X100.543 Y39.367 E34.83828
G1 X98.911 Y39.367 E34.91970
G1 X99.008 Y40.105 E34.95683
G1 X99.777 Y40.004 E34.99553
G1 X99.777 Y40.005 E34.99558
G1 X100.806 Y39.868 E35.04737
G1 X102.346 Y39.868 E35.12420
G1 X104.038 Y40.321 E35.21159
G1 X105.133 Y40.953 E35.27466
G1 X105.562 Y41.205 E35.29948
G1 X106.796 Y42.435 E35.38641
G1 X107.409 Y43.505 E35.44793
G1 X107.664 Y43.938 E35.47300
G1 X107.992 Y45.158 E35.53603
G1 X107.991 Y45.158 E35.53608
G1 X108.122 Y45.630 E35.56052
G1 X108.122 Y47.393 E35.64847
G1 X107.795 Y48.614 E35.71154
G1 X107.662 Y49.094 E35.73638
G1 X106.794 Y50.602 E35.82319
G1 X105.907 Y51.488 E35.88574
G1 X105.554 Y51.841 E35.91065
G1 X104.468 Y52.466 E35.97316
G1 X104.051 Y52.712 E35.99731
G1 X102.346 Y53.168 E36.08537
G1 X100.723 Y53.168 E36.16634
G1 X100.820 Y53.907 E36.20352
G1 X101.594 Y53.805 E36.24247
G1 X101.594 Y53.806 E36.24252
G1 X102.624 Y53.669 E36.29436
G1 X104.165 Y53.669 E36.37124
G1 X105.385 Y53.996 E36.43426
G1 X105.865 Y54.129 E36.45911
G1 X107.370 Y54.996 E36.54576
G1 X108.609 Y56.236 E36.63321
G1 X109.235 Y57.318 E36.69558
G1 X109.484 Y57.741 E36.72006
G1 X109.938 Y59.446 E36.80809
G1 X109.938 Y61.192 E36.89520
G1 X109.614 Y62.412 E36.95818
G1 X109.480 Y62.897 E36.98328
G1 X108.854 Y63.981 E37.04573
G1 X108.600 Y64.412 E37.07069
G1 X107.371 Y65.641 E37.15740
G1 X105.854 Y66.517 E37.24480
G1 X104.645 Y66.841 E37.30724
G1 X104.645 Y66.840 E37.30729
G1 X104.177 Y66.970 E37.33153
G1 X102.534 Y66.970 E37.41350
G1 X104.430 Y81.414 E38.14029
G1 X106.666 Y82.340 E38.26103
G1 X108.060 Y83.405 E38.34855
G1 X109.125 Y84.799 E38.43608
G1 X109.565 Y85.862 E38.49347
G1 X109.566 Y85.862 E38.49352
G1 X109.794 Y86.405 E38.52290
G1 X109.995 Y87.942 E38.60024
G1 X109.995 Y132.056 E40.80109
G1 X109.870 Y133.015 E40.84934
G1 X109.793 Y133.591 E40.87834
G1 X109.343 Y134.677 E40.93698
G1 X109.120 Y135.207 E40.96567
G1 X108.059 Y136.594 E41.05279
G1 X107.122 Y137.310 E41.11163
G1 X106.670 Y137.658 E41.14009
G1 X104.430 Y138.585 E41.26103
G1 X102.534 Y153.029 E41.98783
G1 X104.163 Y153.029 E42.06910
G1 X105.383 Y153.355 E42.13210
G1 X105.866 Y153.488 E42.15709
G1 X107.371 Y154.358 E42.24382
G1 X108.610 Y155.596 E42.33120
G1 X109.222 Y156.658 E42.39236
G1 X109.483 Y157.102 E42.41805
G1 X109.938 Y158.805 E42.50599
G1 X109.938 Y160.553 E42.59320
